images/face.svg

<svg width="18" height="18" viewBox="0 0 18 18" fill="none" xmlns="http://www.w3.org/2000/svg">
<path d="M17.3337 12.4918C17.3337 15.5251 15.5253 17.3334 12.492 17.3334H11.5003C11.042 17.3334 10.667 16.9584 10.667 16.5001V11.6918C10.667 11.4668 10.8503 11.2751 11.0753 11.2751L12.542 11.2501C12.6587 11.2418 12.7587 11.1584 12.7837 11.0418L13.0753 9.45009C13.1003 9.30009 12.9837 9.15842 12.8253 9.15842L11.0503 9.18342C10.817 9.18342 10.6337 9.00009 10.6253 8.77509L10.592 6.73341C10.592 6.60008 10.7003 6.48342 10.842 6.48342L12.842 6.45008C12.9836 6.45008 13.092 6.34176 13.092 6.20009L13.0587 4.20007C13.0587 4.05841 12.9503 3.95008 12.8087 3.95008L10.5587 3.98342C9.17532 4.00842 8.07534 5.14175 8.10034 6.52508L8.14199 8.81675C8.15033 9.05008 7.967 9.23342 7.73367 9.24176L6.73366 9.25841C6.59199 9.25841 6.48367 9.36674 6.48367 9.5084L6.50867 11.0918C6.50867 11.2334 6.61699 11.3417 6.75866 11.3417L7.75867 11.3251C7.992 11.3251 8.17532 11.5084 8.18365 11.7334L8.25865 16.4834C8.26698 16.9501 7.89198 17.3334 7.42531 17.3334H5.50866C2.47532 17.3334 0.666992 15.5251 0.666992 12.4834V5.50841C0.666992 2.47508 2.47532 0.666748 5.50866 0.666748H12.492C15.5253 0.666748 17.3337 2.47508 17.3337 5.50841V12.4918Z" fill="black"/>
</svg>

<svg xmlns="http://www.w3.org/2000/svg" width="18" height="18" fill="none"><path fill="#000" d="M17.334 12.492c0 3.033-1.809 4.841-4.842 4.841H11.5a.836.836 0 0 1-.833-.833v-4.808c0-.225.183-.417.408-.417l1.467-.025a.266.266 0 0 0 .242-.208l.291-1.592a.252.252 0 0 0-.25-.292l-1.775.025a.424.424 0 0 1-.425-.408l-.033-2.042a.25.25 0 0 1 .25-.25l2-.033c.142 0 .25-.108.25-.25l-.033-2a.246.246 0 0 0-.25-.25l-2.25.033A2.497 2.497 0 0 0 8.1 6.525l.042 2.292a.413.413 0 0 1-.408.425l-1 .016a.246.246 0 0 0-.25.25l.025 1.584c0 .141.108.25.25.25l1-.017c.233 0 .416.183.425.408l.075 4.75a.834.834 0 0 1-.834.85H5.51c-3.034 0-4.842-1.808-4.842-4.85V5.508C.667 2.475 2.475.667 5.509.667h6.983c3.033 0 4.842 1.808 4.842 4.841v6.984Z"/></svg>
